X:1
T:Der evangelische Kirchenchor
T:Straf mich nicht in deinem Zorn
T:Max Reger
T:Text: Johann Georg Albinus
T:Straf mich nicht in deinem Zorn
T:Nr. 25 aus Der evangelische Kirchenchor, WoO VI/17 
T:CPDL - Creative Commons Attribution Non Commercial 3.0
C:Max Reger
Z:Johann Georg Albinus
Z:CPDL - Creative Commons Attribution Non Commercial 3.0
%%score [ ( 1 2 ) ( 3 4 ) ]
L:1/8
Q:1/4=66
M:4/4
K:E
V:1 treble nm="Sopran\nAlt"
V:2 treble 
V:3 bass nm="Tenor\nBass"
V:4 bass 
V:1
!pp!"^Langsam"!<(! G2 GA B2 B2!<)! | E2 F2 G4 | c2 d2 e2 G2 |!>(! F4 E4!>)! | %4
!pp!!<(! G2 GA B2 B2!<)! | E2 F2 G4 | c2 d2 e2 G2 |!>(! F4 E4!>)! |!p!!<(! B2 F2 G4 | %9
 c2 G2 ^A4!<)! |!p! B2 F2 G^A B2 |!>(! (B2 ^A2) B4!>)! |!pp!!<(! c2 d2!<)! e2 G2 | %13
[Q:1/4=60]"^poco rit."!>(! F4!>)! !fermata!E4 |] %14
V:2
 E2 E2 D2 =D2 | C2 ^D2 E4 | E2 F2 E2 E2 | (E2 D2) B,4 | E2 E2 D2 =D2 | C2 ^D2 E4 | E2 F2 E2 E2 | %7
w: 1.~Straf mich nicht in|dei- nem Zorn,|gro- ßer Gott, ver-|scho- * ne;|ach lass mich nicht|sein ver- lorn,|nach Ver- dienst nicht|
w: 2.~Ach, ich bin so|müd' und matt|von den schwe- ren|Pla- * gen;|mein Herz ist der|Seuf- zer satt,|die nach Hil- fe|
w: 3.~Zeig mir dei- ne|Va- ter- huld,|stärk mit Trost mich|Schwa- * chen;|ach Herr, hab mit|mir Ge- duld,|mein Ge- bei- ne|
 (E2 D2) B,4 | F2 D2 E4 | G2 ^E2 F4 | D2 F2 E2 F2 | E4 D4 | F2 F2 E2 E2 | (E2 D2) B,4 |] %14
w: loh- * ne!|Hat die Sünd'|dich ent- zünd't,|lösch ab in dem|Lam- me|dei- nes Grim- mes|Flam- * me.|
w: fra- * gen:|wie so lang|machst du bang|mei- ner ar- men|See- le|in der Schwer- muts-|höh- * le?|
w: kra- * chen;|heil die Seel'|mit dem Öl|dei- ner gro- ßen|Gna- den,|wend ab al- len|Scha- * den.|
V:3
 B,2 C2 B,2 E,2 | E,2 =C2 B,4 | A,2 A,2 G,A, B,2 | (C2 B,A,) G,4 | B,2 C2 B,2 E,2 | E,2 =C2 B,4 | %6
 A,2 A,2 G,A, B,2 | (C2 B,A,) G,4 | B,2 B,2 B,4 | C2 C2 C4 | B,2 B,2 B,2 B,2 | C4 B,4 | %12
 ^A,2 =A,2 G,2 B,2 | (C2 B,A,) G,4 |] %14
V:4
 E,2 C,2 G,,2 G,,2 | A,,2 A,,2 E,4 | A,,2 F,2 C,2 G,,2 | (A,,2 B,,2) E,4 | E,2 C,2 G,,2 G,,2 | %5
 A,,2 A,,2 E,4 | A,,2 F,2 C,2 G,,2 | (A,,2 B,,2) E,4 | D,2 B,,2 E,4 | ^E,2 C,2 F,4 | %10
 G,2 D,2 E,2 D,2 | (C,2 F,2) B,,4 | F,2 ^B,,2 C,2 G,,2 | (A,,2 B,,2) !fermata!E,4 |] %14

